X:1
T:St. Mary Magdalene, CM
T:St. Mary Magdalene, CM
T:Johann Crüger, 1653
T:Public Domain Courtesy of the Cyber Hymnal™
C:Johann Crüger, 1653
Z:Public Domain
Z:Courtesy of the Cyber Hymnal™
%%score ( 1 2 ) ( 3 4 )
L:1/8
Q:1/4=115
M:none
K:G
V:1 treble 
V:2 treble 
V:3 bass 
V:4 bass 
V:1
 [B,G]2 | [CE]2 D2 [B,G]2 [DA]2 | [DB]2 B2 [FA]2 [GB]2 | [Gd]2 [Gc]2 [GB]2 [FA]2 x | G6 (dc) | %5
 [DB]2 [Gd]2 [Ge]2 [Gd]2 | c2 [GB]2 [FA]2 [Gd]2 | A2 (Bc) [GB]2 [FA]2 x | G6 |] %9
V:2
 x2 | x2 D2 x4 | x2 (DE) x4 | x9 | G6 D2 | x8 | (EF) x6 | (EF) G2 x5 | G6 |] %9
V:3
 [G,,G,]2 | [C,G,]2 [B,,G,]2 [E,G,]2 [D,F,]2 | G,2 (B,^C) [D,D]2 [G,D]2 | [B,,D]2 [C,E]2 D3 z C | %4
 [G,B,]6 [F,A,]2 | G,2 [B,,G,]2 [C,C]2 [G,B,]2 | A,2 (B,C) [D,D]2 [B,,D]2 | %7
 [C,C]2 ([B,,D][A,,E]) D3 z C | [G,,B,]6 |] %9
V:4
 x2 | x8 | G,2 G,2 x4 | x4 D,2 D,2 x | x8 | G,2 x6 | A,2 G,2 x4 | x4 D,2 D,2 x | x6 |] %9

